images/Logos.svg/linkedin-4.svg

<svg width="20" height="20" viewBox="0 0 20 20" fill="none" xmlns="http://www.w3.org/2000/svg">
<g clip-path="url(#clip0)">
<path d="M19.9951 20V19.9992H20.0001V12.6642C20.0001 9.07587 19.2276 6.31171 15.0326 6.31171C13.0159 6.31171 11.6626 7.41837 11.1101 8.46754H11.0517V6.64671H7.07422V19.9992H11.2159V13.3875C11.2159 11.6467 11.5459 9.96337 13.7017 9.96337C15.8259 9.96337 15.8576 11.95 15.8576 13.4992V20H19.9951Z" fill="#AFB1B8"/>
<path d="M0.330078 6.64746H4.47675V20H0.330078V6.64746Z" fill="#AFB1B8"/>
<path d="M2.40167 0C1.07583 0 0 1.07583 0 2.40167C0 3.7275 1.07583 4.82583 2.40167 4.82583C3.7275 4.82583 4.80333 3.7275 4.80333 2.40167C4.8025 1.07583 3.72667 0 2.40167 0V0Z" fill="#AFB1B8"/>
</g>
<defs>
<clipPath id="clip0">
<rect width="20" height="20" fill="white"/>
</clipPath>
</defs>
</svg>

<svg xmlns="http://www.w3.org/2000/svg" width="20" height="20" fill="none" xmlns:v="https://vecta.io/nano"><g clip-path="url(#A)" fill="#afb1b8"><path d="M19.995 20H20v-7.335c0-3.588-.773-6.352-4.967-6.352-2.017 0-3.37 1.107-3.923 2.156h-.058V6.65H7.074V20h4.142v-6.612c0-1.74.33-3.424 2.486-3.424 2.124 0 2.156 1.987 2.156 3.536V20h4.138zM.33 6.647h4.147V20H.33V6.647zM2.402 0C1.076 0 0 1.076 0 2.402s1.076 2.424 2.402 2.424 2.402-1.098 2.402-2.424S3.727 0 2.402 0h0z"/></g><defs><clipPath id="A"><path fill="#fff" d="M0 0h20v20H0z"/></clipPath></defs></svg>
